images/done_ico.svg

<svg width="104" height="38" viewBox="0 0 104 38" fill="none" xmlns="http://www.w3.org/2000/svg">
<rect width="104" height="38" rx="4" fill="#FFD384"/>
<path d="M20.0003 16.3332L24.5918 19.7767C25.0102 20.0906 25.5999 20.0289 25.9443 19.6353L34.667 9.6665" stroke="#10143E" stroke-width="2" stroke-linecap="round"/>
<path d="M36 19C36 21.5073 35.2146 23.9517 33.7542 25.9897C32.2937 28.0278 30.2315 29.5572 27.8573 30.3632C25.483 31.1691 22.9159 31.2111 20.5166 30.4833C18.1172 29.7554 16.0061 28.2943 14.4798 26.3051C12.9534 24.3159 12.0885 21.8986 12.0064 19.3926C11.9244 16.8867 12.6294 14.4179 14.0224 12.3332C15.4154 10.2484 17.4264 8.65233 19.773 7.76913C22.1196 6.88592 24.6839 6.75995 27.1058 7.40889" stroke="#10143E" stroke-width="2" stroke-linecap="round"/>
<path d="M60.078 19.29C60.078 20.562 59.802 21.666 59.25 22.602C58.71 23.538 57.936 24.258 56.928 24.762C55.932 25.254 54.768 25.5 53.436 25.5H49.35V12.99H53.436C54.768 12.99 55.932 13.248 56.928 13.764C57.936 14.268 58.71 15 59.25 15.96C59.802 16.908 60.078 18.018 60.078 19.29ZM53.436 23.934C54.888 23.934 56.004 23.52 56.784 22.692C57.576 21.864 57.972 20.73 57.972 19.29C57.972 17.838 57.576 16.704 56.784 15.888C56.004 15.06 54.888 14.646 53.436 14.646H51.402V23.934H53.436ZM66.5037 15.42C67.4517 15.42 68.3097 15.63 69.0777 16.05C69.8457 16.47 70.4517 17.07 70.8957 17.85C71.3397 18.63 71.5617 19.524 71.5617 20.532C71.5617 21.54 71.3337 22.434 70.8777 23.214C70.4217 23.994 69.7977 24.6 69.0057 25.032C68.2257 25.452 67.3617 25.662 66.4137 25.662C65.4777 25.662 64.6317 25.452 63.8757 25.032C63.1197 24.6 62.5257 24 62.0937 23.232C61.6617 22.452 61.4457 21.552 61.4457 20.532C61.4457 19.524 61.6677 18.63 62.1117 17.85C62.5557 17.07 63.1617 16.47 63.9297 16.05C64.6977 15.63 65.5557 15.42 66.5037 15.42ZM66.4677 17.148C65.9397 17.148 65.4537 17.28 65.0097 17.544C64.5657 17.796 64.2057 18.18 63.9297 18.696C63.6657 19.2 63.5337 19.812 63.5337 20.532C63.5337 21.252 63.6597 21.87 63.9117 22.386C64.1757 22.902 64.5237 23.292 64.9557 23.556C65.3997 23.808 65.8857 23.934 66.4137 23.934C66.9417 23.934 67.4337 23.802 67.8897 23.538C68.3577 23.274 68.7357 22.89 69.0237 22.386C69.3117 21.87 69.4557 21.252 69.4557 20.532C69.4557 19.812 69.3177 19.2 69.0417 18.696C68.7657 18.18 68.3997 17.796 67.9437 17.544C67.4877 17.28 66.9957 17.148 66.4677 17.148ZM78.8102 15.42C79.5302 15.42 80.1782 15.582 80.7542 15.906C81.3422 16.23 81.8042 16.71 82.1402 17.346C82.4882 17.982 82.6622 18.75 82.6622 19.65V25.5H80.6282V19.956C80.6282 19.068 80.4062 18.39 79.9622 17.922C79.5182 17.442 78.9122 17.202 78.1442 17.202C77.3762 17.202 76.7642 17.442 76.3082 17.922C75.8642 18.39 75.6422 19.068 75.6422 19.956V25.5H73.5902V15.582H75.6422V17.148C75.9662 16.584 76.3982 16.158 76.9382 15.87C77.4902 15.57 78.1142 15.42 78.8102 15.42ZM94.3697 20.262C94.3697 20.61 94.3457 20.934 94.2977 21.234H86.7017C86.7497 22.062 87.0257 22.722 87.5297 23.214C88.0457 23.694 88.6877 23.934 89.4557 23.934C90.5717 23.934 91.3577 23.472 91.8137 22.548H94.0277C93.7277 23.46 93.1817 24.21 92.3897 24.798C91.5977 25.374 90.6197 25.662 89.4557 25.662C88.5077 25.662 87.6677 25.452 86.9357 25.032C86.2037 24.6 85.6277 24 85.2077 23.232C84.7997 22.452 84.5957 21.552 84.5957 20.532C84.5957 19.512 84.7997 18.618 85.2077 17.85C85.6277 17.07 86.2097 16.47 86.9537 16.05C87.7097 15.63 88.5737 15.42 89.5457 15.42C90.4817 15.42 91.3157 15.624 92.0477 16.032C92.7797 16.44 93.3497 17.01 93.7577 17.742C94.1657 18.474 94.3697 19.314 94.3697 20.262ZM92.2277 19.83C92.2157 19.014 91.9457 18.366 91.4177 17.886C90.8897 17.394 90.2357 17.148 89.4557 17.148C88.7237 17.148 88.0997 17.394 87.5837 17.886C87.0797 18.366 86.7917 19.014 86.7197 19.83H92.2277Z" fill="#10143E"/>
</svg>

<svg width="104" height="38" fill="none" xmlns="http://www.w3.org/2000/svg"><rect width="104" height="38" rx="4" fill="#FFD384"/><path d="M20 16.333l4.592 3.444a1 1 0 001.352-.142l8.723-9.969M36 19a12 12 0 11-8.894-11.591" stroke="#10143E" stroke-width="2" stroke-linecap="round"/><path d="M60.078 19.29c0 1.272-.276 2.376-.828 3.312-.54.936-1.314 1.656-2.322 2.16-.996.492-2.16.738-3.492.738H49.35V12.99h4.086c1.332 0 2.496.258 3.492.774a5.337 5.337 0 012.322 2.196c.552.948.828 2.058.828 3.33zm-6.642 4.644c1.452 0 2.568-.414 3.348-1.242.792-.828 1.188-1.962 1.188-3.402 0-1.452-.396-2.586-1.188-3.402-.78-.828-1.896-1.242-3.348-1.242h-2.034v9.288h2.034zm13.068-8.514c.948 0 1.806.21 2.574.63a4.6 4.6 0 011.818 1.8c.444.78.666 1.674.666 2.682s-.228 1.902-.684 2.682a4.783 4.783 0 01-1.872 1.818c-.78.42-1.644.63-2.592.63-.936 0-1.782-.21-2.538-.63a4.67 4.67 0 01-1.782-1.8c-.432-.78-.648-1.68-.648-2.7 0-1.008.222-1.902.666-2.682a4.6 4.6 0 011.818-1.8c.768-.42 1.626-.63 2.574-.63zm-.036 1.728a2.8 2.8 0 00-1.458.396c-.444.252-.804.636-1.08 1.152-.264.504-.396 1.116-.396 1.836s.126 1.338.378 1.854c.264.516.612.906 1.044 1.17.444.252.93.378 1.458.378.528 0 1.02-.132 1.476-.396a2.99 2.99 0 001.134-1.152c.288-.516.432-1.134.432-1.854 0-.72-.138-1.332-.414-1.836-.276-.516-.642-.9-1.098-1.152a2.896 2.896 0 00-1.476-.396zM78.81 15.42c.72 0 1.368.162 1.944.486.588.324 1.05.804 1.386 1.44.348.636.522 1.404.522 2.304v5.85h-2.034v-5.544c0-.888-.222-1.566-.666-2.034-.444-.48-1.05-.72-1.818-.72s-1.38.24-1.836.72c-.444.468-.666 1.146-.666 2.034V25.5H73.59v-9.918h2.052v1.566c.324-.564.756-.99 1.296-1.278.552-.3 1.176-.45 1.872-.45zm15.56 4.842c0 .348-.024.672-.072.972h-7.596c.048.828.324 1.488.828 1.98.516.48 1.158.72 1.926.72 1.116 0 1.902-.462 2.358-1.386h2.214a4.498 4.498 0 01-1.638 2.25c-.792.576-1.77.864-2.934.864-.948 0-1.788-.21-2.52-.63a4.62 4.62 0 01-1.728-1.8c-.408-.78-.612-1.68-.612-2.7 0-1.02.204-1.914.612-2.682a4.428 4.428 0 011.746-1.8c.756-.42 1.62-.63 2.592-.63.936 0 1.77.204 2.502.612a4.34 4.34 0 011.71 1.71c.408.732.612 1.572.612 2.52zm-2.142-.432c-.012-.816-.282-1.464-.81-1.944-.528-.492-1.182-.738-1.962-.738-.732 0-1.356.246-1.872.738-.504.48-.792 1.128-.864 1.944h5.508z" fill="#10143E"/></svg>
